X: 16216
T: Greenhorn, The
R: reel
M: 4/4
K: Gminor
|DGAd ^cdBG|DGAd ^cdBG|DGAd ^cdBG|DGAB BAG^F|
DGAd ^cdBG|DGAd ^cdBG|DGAd ^cdBG|DGAB BAG^F|
EGBd ^cded|EGBd ^cded|EGBd ^cded|DGAd ^cdBG|
EGBd ^cded|EGBd ^cded|Dd^cd =cd=Bc|A=Bcd =e^fge|
a3g ^fgaf|g^f=ef gfeg|=effe d2Ad|cdAd =e^fge|
ag^fg agfa|^fgg2 gf=eg|=effe d2Ad|cdAd cdAd|
Aa/a/aa ag^fa|g^f=ef gfeg|=effe d2Ad|c2Ad cdAd|
Aa/a/aa ag^fa|g=ece g^feg|=effe d2Ad|cdAd cBAG|

